web/assets/local/images/logo.svg

<?xml version="1.0" encoding="utf-8"?>
<!-- Generator: Adobe Illustrator 21.1.0, SVG Export Plug-In . SVG Version: 6.00 Build 0)  -->
<svg version="1.1" id="Ebene_1" xmlns="http://www.w3.org/2000/svg" xmlns:xlink="http://www.w3.org/1999/xlink" x="0px" y="0px"
	 viewBox="0 0 703 155.2" style="enable-background:new 0 0 703 155.2;" xml:space="preserve">
<style type="text/css">
	.st0{fill:#3999D5;}
	.st1{fill:#364053;}
</style>
<path class="st0" d="M102.3,64.4c0,5.8-4.9,9.4-12,9.4H62.1L64,55.6c10.5,0.1,23.9,0.1,28.7,0.1C98.9,55.7,102.3,60,102.3,64.4
	 M126.4,64.7c1.4-15.6-11.9-33-34.3-33l-49.9,0l-9.5,94.8h24.2l2.9-28.7H83l12.7,28.7H122l-14.3-32.3
	C120.8,87,125.3,76.9,126.4,64.7 M212.9,55.6l2.4-23.9l-47.8,0c-21.9,0-34.7,13.3-38,45.4c-3.1,30.4,10.4,49.4,34.8,49.4h41.4
	l2.5-24.1c-13.8-0.1-36.2-0.4-43.2-0.4c-8.3,0-11.5-3.3-11.9-13.1h48.2l2.1-21.3h-48.1c2-8.6,6.2-11.9,12-11.9L212.9,55.6z
	 M276.6,77c-1.7,17.4-8,25.5-15.5,25.5h-23.2l4.7-46.7h23C272.7,55.7,277.8,64.3,276.6,77 M266.6,31.7h-45.7l-9.6,94.8l50.3,0
	C308.3,126.5,316.4,31.7,266.6,31.7 M599,101.4l0.9-8.8l-15,0c-8.5,0-13,6.3-13.9,16.6c-0.9,11.1,3.5,18.1,12.7,18.1
	c2.4,0,7.8,0.1,12.7,0l0.9-8.8c-4.8,0-10.5,0-13,0c-3.2,0-5.3-1.7-4.6-8.4c0.9-7.6,2.8-8.7,5.9-8.7L599,101.4z M641.8,106.5
	c0.8-8.4-4.5-13.9-12.4-14l-25.6-0.2l-3.2,34.9h8.8l2.4-26l6.2,0.1l-2.6,26h8.8l2.6-26h2.6c2.7,0,3.9,1.1,3.6,4.3l-2.2,21.7h8.8
	L641.8,106.5z M671.1,101.2l0.9-8.8l-14.7,0c-15.1,0-15.8,21.2-1.1,21.2l5.8,0c2.8,0,2.9,4.7-0.5,4.7l-16.8,0l-0.9,8.8l17.4,0
	c14.7,0,15.7-21.5,1.2-21.5l-6.1,0c-2.9,0-3.1-4.4,0.6-4.4L671.1,101.2z"/>
<path class="st1" d="M371,67.3l-0.8,7.9h-40.3l0.6-5.5c1.1-10.6,4.6-13.9,12.1-14.1H361C369,55.6,371.9,59.8,371,67.3 M361.1,31.7
	h-18.6c-20.9,0-33.5,13.8-35.9,35.6l-6,59.3h24.2l3-30H368l-3.1,30H389l5.9-56.8C397.2,46.8,382.5,31.8,361.1,31.7 M451.4,83.3
	l34.1-51.4h-30.1l-18.6,29l-17.6-29h-26.9l30.8,49.3l-30.8,45.2h31.1l15-22.5l14.3,22.5h28.3L451.4,83.3z M540.7,79.9
	c-1.9,18.2-6.3,23-15.1,23c-2,0-17,0.1-17,0.1c-8.1,0.2-13.6-4.3-11.7-23.1c1.7-16.9,6.5-24.2,14.6-24.2c0,0,18.3,0,19.5,0
	C539.9,55.6,542.5,60.9,540.7,79.9 M564.9,79.3c3.2-31.7-11.7-48.1-33.3-48.1l-21.8,0c-20.5,0-34.1,18.1-36.9,45.7
	c-2.9,29.2,8.1,50.2,35.1,50.2l19.1-0.1C550.1,127.2,561.7,110.9,564.9,79.3 M595.2,45.2c-0.4,1.2-1.4,2-3.2,2h-0.7l0.6-4.9h1.1
	C595.1,42.3,595.8,43.4,595.2,45.2 M600.3,46c1.6-4.9-1.2-8.1-6.5-8.1h-6.5l-2.7,21.5h5.2l0.9-7.6l3.8,7.6h6.1l-4.9-9
	C598,49.8,599.6,48.2,600.3,46 M602,58.5c-5.2,5.3-13.7,5.3-18.9,0c-2.6-2.6-4-6-4-9.6c0-3.7,1.4-7.1,4-9.7c5.2-5.3,13.7-5.3,18.9,0
	C607.3,44.5,607.3,53.1,602,58.5 M610.3,48.8c0-9.9-8-17.9-17.8-17.9c-9.8,0-17.8,8-17.8,17.9c0,9.8,8,17.8,17.8,17.8
	C602.4,66.7,610.3,58.7,610.3,48.8"/>
</svg>

<?xml version="1.0" encoding="UTF-8"?>
<svg width="641px" height="98px" viewBox="0 0 641 98" version="1.1" xmlns="http://www.w3.org/2000/svg" xmlns:xlink="http://www.w3.org/1999/xlink">
    <title>logo</title>
    <g id="Page-1" stroke="none" stroke-width="1" fill="none" fill-rule="evenodd">
        <g id="logo" transform="translate(-32, -30)" fill-rule="nonzero">
            <path d="M102.3,64.4 C102.3,70.2 97.4,73.8 90.3,73.8 L62.1,73.8 L64,55.6 C74.5,55.7 87.9,55.7 92.7,55.7 C98.9,55.7 102.3,60 102.3,64.4 M126.4,64.7 C127.8,49.1 114.5,31.7 92.1,31.7 L42.2,31.7 L32.7,126.5 L56.9,126.5 L59.8,97.8 L83,97.8 L95.7,126.5 L122,126.5 L107.7,94.2 C120.8,87 125.3,76.9 126.4,64.7 M212.9,55.6 L215.3,31.7 L167.5,31.7 C145.6,31.7 132.8,45 129.5,77.1 C126.4,107.5 139.9,126.5 164.3,126.5 L205.7,126.5 L208.2,102.4 C194.4,102.3 172,102 165,102 C156.7,102 153.5,98.7 153.1,88.9 L201.3,88.9 L203.4,67.6 L155.3,67.6 C157.3,59 161.5,55.7 167.3,55.7 L212.9,55.6 Z M276.6,77 C274.9,94.4 268.6,102.5 261.1,102.5 L237.9,102.5 L242.6,55.8 L265.6,55.8 C272.7,55.7 277.8,64.3 276.6,77 M266.6,31.7 L220.9,31.7 L211.3,126.5 L261.6,126.5 C308.3,126.5 316.4,31.7 266.6,31.7 M599,101.4 L599.9,92.6 L584.9,92.6 C576.4,92.6 571.9,98.9 571,109.2 C570.1,120.3 574.5,127.3 583.7,127.3 C586.1,127.3 591.5,127.4 596.4,127.3 L597.3,118.5 C592.5,118.5 586.8,118.5 584.3,118.5 C581.1,118.5 579,116.8 579.7,110.1 C580.6,102.5 582.5,101.4 585.6,101.4 L599,101.4 Z M641.8,106.5 C642.6,98.1 637.3,92.6 629.4,92.5 L603.8,92.3 L600.6,127.2 L609.4,127.2 L611.8,101.2 L618,101.3 L615.4,127.3 L624.2,127.3 L626.8,101.3 L629.4,101.3 C632.1,101.3 633.3,102.4 633,105.6 L630.8,127.3 L639.6,127.3 L641.8,106.5 Z M671.1,101.2 L672,92.4 L657.3,92.4 C642.2,92.4 641.5,113.6 656.2,113.6 L662,113.6 C664.8,113.6 664.9,118.3 661.5,118.3 L644.7,118.3 L643.8,127.1 L661.2,127.1 C675.9,127.1 676.9,105.6 662.4,105.6 L656.3,105.6 C653.4,105.6 653.2,101.2 656.9,101.2 L671.1,101.2 Z" id="Shape" fill="#3999D5"></path>
            <path d="M371,67.3 L370.2,75.2 L329.9,75.2 L330.5,69.7 C331.6,59.1 335.1,55.8 342.6,55.6 L361,55.6 C369,55.6 371.9,59.8 371,67.3 M361.1,31.7 L342.5,31.7 C321.6,31.7 309,45.5 306.6,67.3 L300.6,126.6 L324.8,126.6 L327.8,96.6 L368,96.6 L364.9,126.6 L389,126.6 L394.9,69.8 C397.2,46.8 382.5,31.8 361.1,31.7 M451.4,83.3 L485.5,31.9 L455.4,31.9 L436.8,60.9 L419.2,31.9 L392.3,31.9 L423.1,81.2 L392.3,126.4 L423.4,126.4 L438.4,103.9 L452.7,126.4 L481,126.4 L451.4,83.3 Z M540.7,79.9 C538.8,98.1 534.4,102.9 525.6,102.9 C523.6,102.9 508.6,103 508.6,103 C500.5,103.2 495,98.7 496.9,79.9 C498.6,63 503.4,55.7 511.5,55.7 C511.5,55.7 529.8,55.7 531,55.7 C539.9,55.6 542.5,60.9 540.7,79.9 M564.9,79.3 C568.1,47.6 553.2,31.2 531.6,31.2 L509.8,31.2 C489.3,31.2 475.7,49.3 472.9,76.9 C470,106.1 481,127.1 508,127.1 L527.1,127 C550.1,127.2 561.7,110.9 564.9,79.3 M595.2,45.2 C594.8,46.4 593.8,47.2 592,47.2 L591.3,47.2 L591.9,42.3 L593,42.3 C595.1,42.3 595.8,43.4 595.2,45.2 M600.3,46 C601.9,41.1 599.1,37.9 593.8,37.9 L587.3,37.9 L584.6,59.4 L589.8,59.4 L590.7,51.8 L594.5,59.4 L600.6,59.4 L595.7,50.4 C598,49.8 599.6,48.2 600.3,46 M602,58.5 C596.8,63.8 588.3,63.8 583.1,58.5 C580.5,55.9 579.1,52.5 579.1,48.9 C579.1,45.2 580.5,41.8 583.1,39.2 C588.3,33.9 596.8,33.9 602,39.2 C607.3,44.5 607.3,53.1 602,58.5 M610.3,48.8 C610.3,38.9 602.3,30.9 592.5,30.9 C582.7,30.9 574.7,38.9 574.7,48.8 C574.7,58.6 582.7,66.6 592.5,66.6 C602.4,66.7 610.3,58.7 610.3,48.8" id="Shape" fill="#364053"></path>
        </g>
    </g>
</svg>
